X:94
T:Edmonton Assembly. THO5.094
M:2/4
L:1/8
B:Thompson's Complete Collection of 200 Favourite Dances Vol.5
F:https://www.libraryofdance.org/manuals/1780c-Thompson-Compleat-5.pdf
Z:vmp. Peter Dunk 2024
Q:1/4=120
K:D
(f/e/f/g/) af|dAFD|BdAF|TFE E2|\\
(f/e/f/g/) af|dAFD|BdAF|(TED) D2:|
|:(A/B/c/B/) Ad|gfed|cdgf|(e/d/e/f/) e2|\\
(A/B/c/B/) Ad|gfed|edea|dd d2:|
W:
W:The 1st & 2nd Couples change sides and back again ./.
W:then promenade round ./:
W:Lead down the middle, up again and cast off :/.
W:Allemand with your partner :/:

